packages/core/src/svgs/tokens/mono/DERC.svg

<svg width="24" height="24" viewBox="0 0 24 24" fill="none" xmlns="http://www.w3.org/2000/svg">
<path d="M7.02938 2.72352C8.64833 2.27003 10.319 2.02686 11.9999 2C13.3646 2 15.3352 2.24706 16.9706 2.72352C17.7882 2.95882 18.5588 3.2647 19.147 3.64118C19.6999 4.00588 20.2352 4.54706 20.2352 5.28823V16.6235C20.2352 17.1353 20.0117 17.6294 19.6059 17.9647C18.5513 18.8235 17.4453 19.6171 16.2941 20.3411C15.5941 20.7705 14.847 21.1822 14.1235 21.4882C13.4117 21.7823 12.6705 22 11.9999 22C11.3294 22 10.5883 21.7882 9.87645 21.4882C9.12254 21.1623 8.3949 20.7788 7.69997 20.3411C6.55068 19.617 5.44668 18.8234 4.3941 17.9647C4.19575 17.8022 4.03628 17.5974 3.92737 17.3655C3.81845 17.1334 3.76287 16.8799 3.76469 16.6235V5.29411C3.76469 4.55293 4.29411 4.01177 4.8588 3.64705C5.44116 3.27059 6.21175 2.96471 7.02938 2.72941V2.72352ZM5.49999 4.62941C5.03528 4.92941 4.94115 5.15881 4.94115 5.28823V16.6235C4.94115 16.8 5.01763 16.9529 5.13527 17.0529C5.75292 17.5471 6.97644 18.5058 8.3235 19.3411C8.96411 19.7448 9.63475 20.0988 10.3294 20.3999C10.8545 20.6454 11.4214 20.7891 11.9999 20.8235C12.5786 20.7891 13.1454 20.6454 13.6706 20.3999C14.3652 20.0988 15.0358 19.7448 15.6764 19.3411C16.7849 18.6419 17.8496 17.8758 18.8647 17.047C18.9823 16.9529 19.0588 16.8 19.0588 16.6235V5.29411C19.0588 5.17058 18.9646 4.94117 18.4999 4.63528C17.9218 4.29086 17.2979 4.02948 16.6469 3.85882C15.1334 3.43403 13.5718 3.20472 11.9999 3.17648C10.7412 3.17648 8.88232 3.41176 7.35292 3.85293C6.58821 4.07647 5.94116 4.34118 5.49999 4.62941Z" fill="white"/>
<path d="M7.02842 9.92339L4.49902 12.6528V17.5233H6.51666C8.60488 17.0233 9.83431 15.9469 10.1872 15.4704C10.699 15.894 11.6872 15.7763 12.1166 15.6704H13.5577C14.199 15.6704 14.0637 16.4704 13.8225 16.8233C13.6225 17.1115 13.2519 17.541 13.0461 17.7763H12.4814C12.4283 17.7764 12.3776 17.7975 12.3402 17.8351C11.9343 18.2057 11.7637 18.7351 11.7107 19.0704C11.6931 19.1881 11.7872 19.2763 11.9049 19.2763H12.6166L13.6225 18.5115C13.6744 18.5598 13.7356 18.5973 13.8023 18.6216C13.869 18.6458 13.9399 18.6565 14.0107 18.6528C14.452 18.6528 14.4813 17.8998 14.6167 17.5233C14.8754 16.7705 15.1579 16.3704 15.1579 15.7293C15.1579 14.9057 14.4636 14.6528 14.0989 14.6234C13.5695 14.588 13.5461 14.2822 13.8402 14.0115C14.1225 13.7528 14.5872 13.3645 14.8342 13.4821C15.1931 13.6586 15.5048 14.1939 15.6577 14.541C15.7813 14.8175 15.9343 14.8586 15.9931 14.8468V15.0409C15.7931 15.0704 15.4755 15.5116 15.5401 15.7939C15.6989 16.4527 16.0342 16.8704 16.2637 16.8704C16.4519 16.8704 16.6578 16.4233 16.7401 16.194C16.8755 15.8646 17.0343 14.9822 16.9578 14.4175C16.9225 14.1468 16.099 13.5351 15.7872 13.1881C15.6284 13.0116 15.4989 12.841 15.4637 12.7764C15.2048 12.2822 14.8578 12.1881 14.6813 12.1881C14.2284 12.1881 13.9637 12.6528 13.5343 12.6528C12.5813 12.6528 12.6343 11.2292 12.6461 11.0174C12.6578 10.8116 12.6343 10.688 12.2696 10.3527C11.9107 10.0233 11.899 9.05868 12.4284 9.05868C12.8461 9.05868 12.9872 9.7057 13.0049 10.0233C13.0461 10.5058 13.0049 11.741 13.9342 11.741C14.6931 11.741 14.899 9.82923 14.9754 9.24096C15.0519 8.65278 15.3283 7.77043 15.6989 7.77043C15.9931 7.77043 16.0637 8.29983 16.0578 8.56454C16.9048 7.22925 15.3754 6.47631 15.1579 6.30573C14.9813 6.17043 14.9402 6.00572 14.9402 5.94102V5.48221C14.7814 5.62337 14.3931 5.59985 14.2166 5.57043C13.5873 4.5175 12.0931 4.97044 11.152 5.09397C10.752 4.56455 10.4108 4.71749 10.2872 4.85867L9.6578 5.7469C9.60894 5.8149 9.54429 5.87014 9.46962 5.90801C9.39496 5.94589 9.31219 5.96527 9.22841 5.96455H8.17548C8.79312 6.13514 9.14017 6.77043 8.51076 7.02337C8.00489 7.21161 7.55195 6.82337 7.39313 6.59984C7.34606 7.0116 7.51077 7.29396 7.74018 7.60572C8.09313 8.08808 7.95783 8.26455 7.82842 8.29396C6.98137 8.22337 6.36372 9.03508 6.26961 9.05868C7.21666 8.90578 7.28724 9.64696 7.0343 9.92339H7.02842Z" fill="white"/>
</svg>

<svg xmlns="http://www.w3.org/2000/svg" width="24" height="24" fill="none" viewBox="0 0 24 24">
    <path fill="#fff" d="M7.03 2.724A19.6 19.6 0 0 1 12 2c1.365 0 3.335.247 4.97.724.818.235 1.589.54 2.177.917.553.365 1.088.906 1.088 1.647v11.336c0 .511-.223 1.005-.63 1.34a33 33 0 0 1-3.31 2.377c-.7.43-1.448.841-2.172 1.147-.711.294-1.452.512-2.123.512-.67 0-1.412-.212-2.124-.512A16 16 0 0 1 7.7 20.341a33 33 0 0 1-3.306-2.376 1.72 1.72 0 0 1-.63-1.341V5.294c0-.741.53-1.282 1.095-1.647.582-.376 1.353-.682 2.17-.918zM5.5 4.629c-.465.3-.559.53-.559.66v11.335c0 .176.077.329.194.429.618.494 1.841 1.453 3.188 2.288q.963.607 2.006 1.059a4.6 4.6 0 0 0 1.67.424 4.6 4.6 0 0 0 1.672-.424 15 15 0 0 0 2.005-1.059 32 32 0 0 0 3.189-2.294.54.54 0 0 0 .194-.424V5.294c0-.123-.094-.353-.56-.659a7.2 7.2 0 0 0-1.852-.776A18.4 18.4 0 0 0 12 3.176c-1.259 0-3.118.236-4.647.677-.765.223-1.412.488-1.853.776"/>
    <path fill="#fff" d="M7.028 9.923 4.5 12.653v4.87h2.018c2.088-.5 3.317-1.576 3.67-2.053.512.424 1.5.306 1.93.2h1.44c.642 0 .507.8.265 1.153-.2.288-.57.718-.776.953h-.565a.2.2 0 0 0-.14.06c-.407.37-.577.9-.63 1.234-.018.118.076.206.194.206h.712l1.005-.764a.53.53 0 0 0 .389.14c.441 0 .47-.752.606-1.129.258-.753.54-1.153.54-1.794 0-.823-.693-1.076-1.058-1.106-.53-.035-.553-.34-.259-.611.283-.26.747-.648.994-.53.36.177.67.712.824 1.059.123.277.276.318.335.306v.194c-.2.03-.518.47-.453.753.159.659.494 1.076.724 1.076.188 0 .394-.447.476-.676.136-.33.294-1.212.218-1.776-.035-.271-.859-.883-1.17-1.23a3 3 0 0 1-.324-.412c-.26-.494-.606-.588-.783-.588-.453 0-.717.465-1.147.465-.953 0-.9-1.424-.888-1.636.012-.205-.012-.329-.376-.664-.36-.33-.371-1.294.158-1.294.418 0 .56.647.577.964.041.483 0 1.718.93 1.718.758 0 .964-1.912 1.04-2.5s.353-1.47.724-1.47c.294 0 .365.529.359.794.847-1.336-.683-2.089-.9-2.26-.177-.135-.218-.3-.218-.364v-.459c-.159.141-.547.118-.723.088-.63-1.053-2.124-.6-3.065-.476-.4-.53-.741-.377-.865-.235l-.63.888a.52.52 0 0 1-.429.218H8.175c.618.17.965.805.336 1.058-.506.189-.959-.2-1.118-.423-.047.412.118.694.347 1.006.353.482.218.659.088.688-.847-.07-1.464.741-1.558.765.947-.153 1.017.588.764.864z"/>
</svg>
